src/components/content/Icon/functional/key-reports.svg

<svg width="100" height="100" viewBox="0 0 100 100" fill="none" xmlns="http://www.w3.org/2000/svg">
<path d="M70.1582 23.4H65.0562V23.05C65.0562 22.498 64.6082 22.05 64.0562 22.05H58.0282C57.4762 22.05 57.0282 22.498 57.0282 23.05C57.0282 23.602 57.4762 24.05 58.0282 24.05H63.0562V35.7821L59.4142 34.486C59.0412 34.352 58.6332 34.352 58.2602 34.486L54.6162 35.7821V23.05C54.6182 22.498 54.1722 22.05 53.6182 22.05C53.0662 22.05 52.6182 22.498 52.6182 23.05V23.484C52.4922 23.4282 52.356 23.3996 52.2182 23.4H30.3042C29.7522 23.4 29.3042 23.848 29.3042 24.4V76.6C29.3042 77.1521 29.7522 77.6 30.3042 77.6H70.1562C70.7082 77.6 71.1562 77.1521 71.1562 76.6V24.4C71.1562 23.848 70.7082 23.4 70.1562 23.4H70.1582ZM69.1582 75.6H31.3062V25.4H52.2202C52.3622 25.4 52.4982 25.37 52.6202 25.316V37.2C52.6182 37.524 52.7762 37.83 53.0402 38.018C53.2102 38.138 53.4122 38.202 53.6162 38.202C53.7282 38.202 53.8422 38.184 53.9502 38.144L58.8362 36.406L63.7222 38.144C64.0282 38.254 64.3682 38.206 64.6342 38.018C64.765 37.9259 64.8718 37.8037 64.9456 37.6617C65.0193 37.5197 65.058 37.3621 65.0582 37.202V25.402H69.1602V75.6021L69.1582 75.6Z" fill="#0B301A"/>
<path d="M60.9322 45H39.5322C38.9802 45 38.5322 45.448 38.5322 46C38.5322 46.552 38.9802 47 39.5322 47H60.9322C61.4842 47 61.9322 46.552 61.9322 46C61.9322 45.448 61.4842 45 60.9322 45ZM60.9322 51H39.5322C38.9802 51 38.5322 51.448 38.5322 52C38.5322 52.552 38.9802 53 39.5322 53H60.9322C61.4842 53 61.9322 52.552 61.9322 52C61.9322 51.448 61.4842 51 60.9322 51ZM60.9322 66H39.5322C38.9802 66 38.5322 66.4481 38.5322 67C38.5322 67.552 38.9802 68 39.5322 68H60.9322C61.4842 68 61.9322 67.552 61.9322 67C61.9322 66.4481 61.4842 66 60.9322 66Z" fill="#0B301A"/>
</svg>

<svg xmlns="http://www.w3.org/2000/svg" width="100" height="100" fill="none" viewBox="0 0 100 100"><path fill="#0b301a" d="M70.158 23.4h-5.102v-.35a1 1 0 0 0-1-1h-6.028a1 1 0 0 0 0 2h5.028v11.732l-3.642-1.296a1.7 1.7 0 0 0-1.154 0l-3.644 1.296V23.05a.996.996 0 0 0-.998-1 1 1 0 0 0-1 1v.434a1 1 0 0 0-.4-.084H30.304a1 1 0 0 0-1 1v52.2a1 1 0 0 0 1 1h39.852a1 1 0 0 0 1-1V24.4a1 1 0 0 0-1-1zm-1 52.2H31.306V25.4H52.22q.215-.002.4-.084V37.2a1 1 0 0 0 .996 1.002 1 1 0 0 0 .334-.058l4.886-1.738 4.886 1.738a.996.996 0 0 0 1.224-.482 1 1 0 0 0 .112-.46v-11.8h4.102v50.2z"/><path fill="#0b301a" d="M60.932 45h-21.4a1 1 0 0 0 0 2h21.4a1 1 0 0 0 0-2m0 6h-21.4a1 1 0 0 0 0 2h21.4a1 1 0 0 0 0-2m0 15h-21.4a1 1 0 0 0 0 2h21.4a1 1 0 0 0 0-2"/></svg>
